layouts/icon-pack/spell_fear.svg

<?xml version="1.0" encoding="UTF-8"?>
<svg width="1200pt" height="1200pt" version="1.1" viewBox="0 0 1200 1200" xmlns="http://www.w3.org/2000/svg">
 <g fill="#fff">
  <path d="m637.66 82.711c7.3984 17.863-1.0859 38.348-18.953 45.75-17.863 7.3984-38.348-1.0859-45.75-18.953-7.3984-17.867 1.0859-38.348 18.953-45.75 17.863-7.3984 38.348 1.0859 45.75 18.953"/>
  <path d="m1095 272.65c17.18-13.078 34.266-35.555 42.609-74.18 3.5195-16.852 4.8281-34.09 3.8906-51.281-0.87891-20.031-3.0781-39.98-6.5859-59.719-1.0703-5.5312-4.332-10.391-9.0391-13.484-4.7109-3.0898-10.465-4.1484-15.969-2.9336-5.5 1.2148-10.273 4.5977-13.242 9.3867-21.094 33.891-52.805 82.031-77.883 110.16-6.6055 7.2812-11.172 16.172-13.242 25.781 0 0.30469-0.11719 0.63281-0.1875 0.96094-9.8906 50.648 48.539 86.602 89.648 55.312z"/>
  <path d="m958.01 585.35c4.0898 5.043 9.5781 8.7695 15.773 10.711 14.508 4.4766 29.883-3.2109 36.492-16.898 7.0312-14.555 14.719-40.031 12.844-80.227-1.0078-21.727-31.031-26.719-39.164-6.5391 0 0-12.562 23.906-29.602 60.586-2.5156 5.1875-3.5078 10.984-2.8594 16.715 0.64453 5.7266 2.9062 11.156 6.5156 15.652z"/>
  <path d="m437.65 764.86c24.848 26.012 56.902 44.004 92.047 51.664 35.148 7.6641 71.781 4.6484 105.2-8.6562 96.352-37.781 231.63-140.11 283.85-490.1 4.0781-27.141 7.0312-54.398 9.6328-81.727 2.5078-26.484 11.859-86.039 46.875-134.23 13.078-18.047-1.875-43.008-24.023-40.547-35.953 4.0312-81.82 22.828-116.79 83.742-7.4883 13.309-13.57 27.359-18.141 41.93-12.047 37.312-51.375 125.79-139.64 137.04 0 0-95.273 14.977-112.22-83.367-1.4531-13.301-4.3867-26.395-8.7422-39.047-7.0312-19.711-35.156-18.984-41.602 0.91406-16.691 50.449-46.645 95.484-86.719 130.38-27.727 24.398-50.227 54.328-63.703 88.711-17.578 44.789-29.18 109.66-8.7188 193.34 0.09375-0.023438 22.055 85.875 82.688 149.95zm124.85-251.27c7.6953 0 15.074 3.0586 20.516 8.5 5.4414 5.4414 8.5 12.82 8.5 20.516 0 7.6953-3.0586 15.074-8.5 20.516-5.4414 5.4414-12.82 8.5-20.516 8.5s-15.074-3.0586-20.516-8.5c-5.4414-5.4414-8.5-12.82-8.5-20.516 0-7.6953 3.0586-15.074 8.5-20.516 5.4414-5.4414 12.82-8.5 20.516-8.5zm-39.047 131.13 51.258-13.898c10.102-2.7188 20.867-1.3203 29.938 3.8828 9.0742 5.207 15.711 13.797 18.461 23.891l6.1406 22.641c2.7383 10.109 1.3555 20.895-3.8555 29.984-5.207 9.0859-13.809 15.738-23.918 18.484l-51.258 13.922c-10.117 2.7383-20.906 1.3516-30-3.8594-9.0938-5.2148-15.742-13.824-18.492-23.938l-6.1406-22.617c-2.7383-10.117-1.3516-20.906 3.8594-30 5.2148-9.0938 13.824-15.742 23.938-18.492zm-66.492-113.3c9.5703 0.007813 18.75 3.8125 25.512 10.586 6.7656 6.7695 10.562 15.953 10.559 25.523s-3.8086 18.75-10.578 25.516c-6.7734 6.7656-15.953 10.566-25.523 10.562-9.5703-0.003906-18.75-3.8047-25.516-10.574-6.7695-6.7695-10.57-15.949-10.57-25.52 0-9.5664 3.7969-18.738 10.555-25.504 6.7578-6.7695 15.926-10.578 25.492-10.59z"/>
  <path d="m263.81 1103.7c18.789 14.598 43.23 19.777 66.328 14.062 50.367-12.469 105.84-29.438 143.32-41.391 12.617-4.043 26.234-3.6523 38.598 1.1094 12.363 4.7617 22.727 13.609 29.371 25.07l10.594 18.258c6.4844 11.172 18.422 18.047 31.336 18.047h338.2c25.938 0.10156 51.332-7.4219 73.031-21.633 39.281-25.922 70.805-64.617 94.453-101.58 40.5-63.281 62.906-136.52 67.195-211.57 6.2344-108.87-16.289-192.02-36.961-243.61-6.8203-17.062-32.109-13.195-33.516 5.1094-11.719 151.64-51.375 215.37-88.125 241.17-40.523 28.5-94.852-9.5859-83.273-57.75 4.2148-16.328 10.625-32.012 19.055-46.617 3.1328-5.543 4.1289-12.039 2.7969-18.266-1.3281-6.2266-4.8906-11.75-10.016-15.531l-0.75-0.53906c-5.8398-4.2227-13.18-5.8125-20.242-4.3789-7.0625 1.4336-13.199 5.7578-16.93 11.926-54.305 87.469-205.8 180.8-205.8 180.8-75.633 40.43-270.47 86.25-334.12 100.59-13.484 3.0508-27.629 0.76562-39.469-6.375-52.031-31.43-120.02-83.836-163.57-118.55-16.988-12.887-39.324-16.352-59.422-9.2188-20.094 7.1367-35.242 23.91-40.301 44.629-5.0586 20.715 0.66016 42.586 15.207 58.176 71.273 73.172 158.34 143.37 203.02 178.05z"/>
  <path d="m321.23 888.68c4.5234 4.5352 10.238 7.7031 16.48 9.1367 6.2461 1.4336 12.766 1.0781 18.816-1.0273l52.312-18.211c10.426-3.6797 18.297-12.359 20.941-23.094 2.6445-10.734-0.29297-22.078-7.8164-30.18-48.586-51.703-111.4-112.95-144.68-143.7-9.8789-9.1367-22.645-14.523-36.082-15.234s-26.699 3.3008-37.488 11.344c-13.43 10-21.852 25.348-23.07 42.047-1.2188 16.703 4.8828 33.109 16.719 44.953z"/>
 </g>
</svg>

<?xml version="1.0" encoding="UTF-8" standalone="no"?>
<!DOCTYPE svg PUBLIC "-//W3C//DTD SVG 1.1//EN" "http://www.w3.org/Graphics/SVG/1.1/DTD/svg11.dtd">
<svg width="100%" height="100%" viewBox="0 0 512 496" version="1.1" xmlns="http://www.w3.org/2000/svg" xmlns:xlink="http://www.w3.org/1999/xlink" xml:space="preserve" xmlns:serif="http://www.serif.com/" style="fill-rule:evenodd;clip-rule:evenodd;stroke-linejoin:round;stroke-miterlimit:2;">
    <g transform="matrix(1,0,0,1,-43.7861,-61.0847)">
        <g transform="matrix(0.459809,0,0,0.459809,23.6529,32.9974)">
            <path d="M637.66,82.711C645.058,100.574 636.574,121.059 618.707,128.461C600.844,135.859 580.359,127.375 572.957,109.508C565.559,91.641 574.043,71.16 591.91,63.758C609.773,56.36 630.258,64.844 637.66,82.711" style="fill:white;fill-rule:nonzero;"/>
            <path d="M1095,272.65C1112.18,259.572 1129.27,237.095 1137.61,198.47C1141.13,181.618 1142.44,164.38 1141.5,147.189C1140.62,127.158 1138.42,107.209 1134.91,87.47C1133.84,81.939 1130.58,77.079 1125.88,73.986C1121.16,70.896 1115.41,69.838 1109.91,71.052C1104.41,72.267 1099.63,75.65 1096.66,80.439C1075.57,114.33 1043.86,162.47 1018.78,190.599C1012.18,197.88 1007.61,206.771 1005.54,216.38C1005.54,216.685 1005.42,217.013 1005.35,217.341C995.46,267.989 1053.89,303.943 1095,272.653L1095,272.65Z" style="fill:white;fill-rule:nonzero;"/>
            <path d="M958.01,585.35C962.1,590.393 967.588,594.12 973.783,596.061C988.291,600.538 1003.67,592.85 1010.27,579.163C1017.31,564.608 1024.99,539.132 1023.12,498.936C1022.11,477.209 992.088,472.217 983.955,492.397C983.955,492.397 971.393,516.303 954.353,552.983C951.837,558.17 950.845,563.967 951.494,569.698C952.138,575.425 954.4,580.854 958.009,585.35L958.01,585.35Z" style="fill:white;fill-rule:nonzero;"/>
            <path d="M437.65,764.86C462.498,790.872 494.552,808.864 529.697,816.524C564.845,824.188 601.478,821.172 634.897,807.868C731.249,770.087 866.527,667.758 918.747,317.768C922.825,290.627 925.778,263.37 928.38,236.041C930.888,209.557 940.239,150.002 975.255,101.811C988.333,83.764 973.38,58.803 951.232,61.264C915.279,65.295 869.412,84.092 834.442,145.006C826.954,158.315 820.872,172.365 816.301,186.936C804.254,224.248 764.926,312.726 676.661,323.976C676.661,323.976 581.388,338.953 564.441,240.609C562.988,227.308 560.054,214.214 555.699,201.562C548.667,181.851 520.543,182.578 514.097,202.476C497.406,252.925 467.452,297.96 427.378,332.856C399.651,357.254 377.151,387.184 363.675,421.567C346.097,466.356 334.495,531.227 354.956,614.907C355.05,614.883 377.011,700.782 437.644,764.857L437.65,764.86ZM562.5,513.59C570.195,513.59 577.574,516.649 583.016,522.09C588.457,527.531 591.516,534.91 591.516,542.606C591.516,550.301 588.457,557.68 583.016,563.122C577.575,568.563 570.196,571.622 562.5,571.622C554.804,571.622 547.426,568.563 541.984,563.122C536.543,557.681 533.484,550.302 533.484,542.606C533.484,534.911 536.543,527.532 541.984,522.09C547.425,516.649 554.804,513.59 562.5,513.59ZM523.453,644.72L574.711,630.822C584.813,628.103 595.578,629.502 604.649,634.705C613.723,639.912 620.36,648.502 623.11,658.596L629.251,681.237C631.989,691.346 630.606,702.132 625.395,711.221C620.188,720.307 611.586,726.959 601.477,729.705L550.219,743.627C540.102,746.365 529.313,744.978 520.219,739.767C511.125,734.553 504.477,725.943 501.727,715.829L495.586,693.212C492.848,683.095 494.235,672.306 499.446,663.212C504.661,654.119 513.27,647.47 523.384,644.72L523.453,644.72ZM456.961,531.42C466.531,531.428 475.711,535.233 482.473,542.006C489.239,548.776 493.035,557.959 493.032,567.529C493.029,577.099 489.223,586.279 482.454,593.045C475.681,599.811 466.501,603.611 456.931,603.607C447.361,603.603 438.181,599.802 431.415,593.033C424.645,586.264 420.845,577.084 420.845,567.513C420.845,557.947 424.642,548.775 431.4,542.009C438.158,535.24 447.326,531.431 456.892,531.419L456.961,531.42Z" style="fill:white;fill-rule:nonzero;"/>
            <path d="M263.81,1103.7C282.599,1118.3 307.04,1123.48 330.138,1117.76C380.505,1105.29 435.978,1088.32 473.458,1076.37C486.075,1072.33 499.692,1072.72 512.056,1077.48C524.419,1082.24 534.783,1091.09 541.427,1102.55L552.021,1120.81C558.505,1131.98 570.443,1138.86 583.357,1138.86L921.557,1138.86C947.495,1138.96 972.889,1131.43 994.588,1117.22C1033.87,1091.3 1065.39,1052.61 1089.04,1015.64C1129.54,952.361 1151.95,879.122 1156.24,804.072C1162.47,695.202 1139.95,612.052 1119.28,560.462C1112.45,543.4 1087.17,547.267 1085.76,565.572C1074.04,717.212 1034.38,780.942 997.634,806.742C957.111,835.242 902.782,797.156 914.361,748.992C918.576,732.664 924.986,716.98 933.416,702.375C936.549,696.832 937.545,690.336 936.213,684.109C934.885,677.882 931.322,672.359 926.197,668.578L925.447,668.039C919.607,663.816 912.267,662.226 905.205,663.66C898.142,665.093 892.006,669.418 888.275,675.586C833.97,763.055 682.475,856.386 682.475,856.386C606.842,896.816 412.005,942.636 348.355,956.976C334.871,960.027 320.726,957.741 308.886,950.601C256.855,919.171 188.866,866.765 145.316,832.051C128.328,819.164 105.992,815.699 85.894,822.832C65.8,829.969 50.652,846.742 45.593,867.461C40.534,888.176 46.253,910.047 60.8,925.637C132.073,998.809 219.14,1069.01 263.82,1103.69L263.81,1103.7Z" style="fill:white;fill-rule:nonzero;"/>
            <path d="M321.23,888.68C325.753,893.215 331.468,896.383 337.71,897.817C343.956,899.25 350.476,898.895 356.526,896.789L408.838,878.578C419.264,874.899 427.135,866.219 429.779,855.484C432.424,844.75 429.486,833.406 421.963,825.304C373.377,773.601 310.563,712.354 277.283,681.604C267.404,672.468 254.638,667.081 241.201,666.37C227.764,665.659 214.502,669.671 203.713,677.714C190.283,687.714 181.861,703.062 180.643,719.761C179.424,736.464 185.525,752.87 197.362,764.714L321.23,888.68Z" style="fill:white;fill-rule:nonzero;"/>
        </g>
    </g>
</svg>
